packages/icons/svg/world.svg

<svg width="24" height="24" viewBox="0 0 24 24" fill="none" xmlns="http://www.w3.org/2000/svg">
<path fill-rule="evenodd" clip-rule="evenodd" d="M2.4578 9.00011C3.73207 4.94301 7.52244 2 12 2C13.4222 2 14.7751 2.29691 16 2.83213V6.38201C16 6.72272 15.7227 7.00001 15.382 7.00001C15.2878 7.00001 15.1918 6.97755 15.1036 6.93378L13.7892 6.27658L13.7876 6.27578C13.4259 6.09574 13.0256 6.00001 12.618 6.00001C11.1727 6.00001 10 7.17272 10 8.61801V10.382C10 11.8273 11.1727 13 12.618 13H15.333C16.254 13 17 13.7455 17 14.667C17 15.1912 16.7532 15.6851 16.3334 16.0004C14.4281 17.4295 13.2345 19.5967 13.0311 21.9475C12.6921 21.9822 12.3481 22 12 22C10.5778 22 9.22494 21.7031 8 21.1679V12.0001C8 10.3425 6.65596 9.00011 5 9.00011H2.4578ZM2.04937 11.0001C2.01672 11.329 2 11.6625 2 12C2 15.2715 3.57113 18.1762 6 20.0007V12.0001C6 11.4477 5.55204 11.0001 5 11.0001H2.04937ZM15.1069 21.5079C19.1086 20.2011 22 16.4381 22 12C22 8.72847 20.4289 5.82379 18 3.99935V6.38201C18 7.82729 16.8273 9.00001 15.382 9.00001C14.9744 9.00001 14.5741 8.90427 14.2124 8.72423L12.8964 8.06623C12.8082 8.02247 12.7122 8.00001 12.618 8.00001C12.2773 8.00001 12 8.27729 12 8.61801V10.382C12 10.7227 12.2773 11 12.618 11H15.333C17.358 11 19 12.6405 19 14.667C19 15.8208 18.4568 16.9069 17.5346 17.5996C16.2532 18.5604 15.395 19.9606 15.1069 21.5079ZM12 0C5.37272 0 0 5.37272 0 12C0 18.6273 5.37272 24 12 24C18.6273 24 24 18.6273 24 12C24 5.37272 18.6273 0 12 0Z" fill="black"/>
</svg>

<svg xmlns="http://www.w3.org/2000/svg" viewBox="0 0 24 24">
    <path fill-rule="evenodd" d="M2.458 9C3.732 4.943 7.522 2 12 2c1.422 0 2.775.297 4 .832v3.55a.619.619 0 0 1-.896.552l-1.315-.657-.001-.001A2.619 2.619 0 0 0 10 8.618v1.764A2.619 2.619 0 0 0 12.618 13h2.715a1.666 1.666 0 0 1 1 3 8.333 8.333 0 0 0-3.302 5.948c-.339.034-.683.052-1.031.052a9.966 9.966 0 0 1-4-.832V12a3 3 0 0 0-3-3H2.458zm-.409 2A9.985 9.985 0 0 0 6 20v-8a1 1 0 0 0-.999-1H2.05zm13.058 10.508C19.109 20.2 22 16.438 22 12a9.985 9.985 0 0 0-4-8v2.382a2.619 2.619 0 0 1-3.788 2.342l-1.316-.658a.619.619 0 0 0-.896.552v1.764c0 .34.277.618.618.618h2.715a3.666 3.666 0 0 1 2.202 6.6 6.335 6.335 0 0 0-2.428 3.908zM12 0C5.373 0 0 5.373 0 12s5.373 12 12 12 12-5.373 12-12S18.627 0 12 0z" clip-rule="evenodd"/>
</svg>
